X:1
T:Title
L:1/8
Q:1/4=100
M:6/8
K:C
V:1 treble nm="Church Organ, Staff"
V:1
 G A2 E E2 | E F2 D D2 | E F2 G A2 | BcB A G2 | G A2 B G2 | A B2 cAB | c d2 G c2 | B A2- A/ z/ G2 | %8
w: By~J.~Stainer * * *||||||||
 G F2 E D2 | A G2 F E2 | c B2 A G2 | c B2 A G2 | G c2 B d2 | c B2 A e2 | d c2 f e2 | d c2- c d2- | %16
w: ||||||||
 d c2- c c2 |] %17
w: |

